X: 25061
T: Maids Of Castlebar, The
R: reel
M: 4/4
K: Dmajor
ABc||dD (3DDD EDB,E|DEFA BAFA|d2cd (3Bcd AF|DEFD EDB,D|
FD (3DDD EDB,E|DEFA BAFA|dfec dBAG|FDEF D2Bc|
dD (3DDD EDB,E|DEFA BAFA|dDcD BDAD|DEFD EDB,D|
FD (3DDD EDB,E|DEFA BAFA|dfec dBAG|FDEF D4|
|:{^g}a2^ga fd (3ddd|fdad fddf|(3gfe be geef|(3gfe be geeg|
~f3a ~g3e|fdec dcBA|Bcde (3f^ga ec|dBAG FDD2:|

